X:448
T:Joe Hutton's March
M:4/4
L:1/8
K:G
D2 | G4 D2 G2 | B2 G2 d3 B | c2 A2 F2 A2 | FGAF D2 EF |
G4 D2 G2 | B2 G2 d3 B | c2 A2 FGAF | G4 G2 :|
ef | g2 G2 f2 G2 | e2 G2 d4 | c2 A2 B2 G2 | FGAF D2 ef |
g2 G2 f2 G2 | e2 G2 d3 B | c2 A2 FGAF | G4 G2 ef |
g2 G2 f2 G2 | e2 G2 d4 | c2 A2 B2 G2 | FGAF D2 EF |
G4 D2 G2 | B2 G2 d3 B | c2 A2 FGAF | G4 G2 ||
